X:1
T:O Ring, Glad Bells
T:O Ring, Glad Bells
T:Charles Spurgeon Brown, 1902
T:Eben Eugene Rexford, 1896
T:Public Domain Courtesy of the Cyber Hymnal™
T:Public Domain Courtesy of the Cyber Hymnal™
C:Charles Spurgeon Brown, 1902
Z:Public Domain
Z:Courtesy of the Cyber Hymnal™
%%score ( 1 2 ) 3
L:1/8
Q:1/4=100
M:4/4
K:C
V:1 treble 
V:2 treble 
V:3 bass 
V:1
 ([CE][DF]) | [EG]3 [EG] [CA]2 [CE]2 | [DG]3 [DF] [CE]3 C | [CF]2 [CE]2 [B,D]2 ([CE][DF]) | %4
w: 1.~O *|ring, glad bells, ring|loud and sweet, And|may these hearts of *|
w: 2.~Let *|us put by all|care that frets, And|grov- eling thoughts, all *|
w: 3.~O *|thorn crowned head! O|bleed- ing hands! This|birth- day morn the *|
w: 4.~Ring *|on, glad bells! Ring|sweet and clear Your|Christ- mas mes- sage *|
 [EG]3 [B,D] [CE]2 ([CE][DF]) | [EG]3 [EG] [^CA]2 [CE]2 | [EG]3 [DF] [CE]3 [CE] | %7
w: ours re- peat, This *|Christ- mas morn, the|grand old song The|
w: vain re- grets, And *|think of Christ born|long a- go In|
w: Sav- ior stands And *|shows His wounds, and|this His plea: “Hast|
w: far and near, While *|rev- erent thoughts like|in- cense rise From|
 [B,D]2 [DB]2 [Ec]2 [DB]2 | [DB]3 [CA] !fermata![B,G]2 (G^G) | %9
w: tide of ag- es|bears a- long. That *|
w: Beth- lehem’s man- ger,|poor and low; And *|
w: thou for- got- ten|Cal- va- ry?” Think *|
w: each heart’s al- tar|to the skies, As *|
 [FA]2 [B,D]2 ([B,D][CE]) ([DF][GB]) | [FA]2 [EG]2 [CE]3 [EG] | %11
w: an- gels sing * at *|Christ- mas still: “Be|
w: while the bells * for *|glad- ness ring, Think|
w: how He lived, * and *|loved, and died, And|
w: we re- peat * the *|song a- gain Of|
 [FA]2 [B,D]2 ([B,D][CE]) ([DF][GB]) | [FA]2 [EG]2 [CE]3 G | [Ec]3 [EG] [EG]2 [Ec]2 | %14
w: peace on earth, * to *|men good will”; That|an- gels sing at|
w: of the Christ * Child *|crowned a king; And|while the bells for|
w: not of earth, * at *|Christ- mas- tide; Think|how He lived, and|
w: “Peace on earth, * good *|will to men”; As|we re- peat the|
 [Ac]3 [FA] [FA]2 ([GB][FA]) | [EG]2 [Ec]2 [Af]2 [Ge]2 | [Ge]3 [Fd] [Ec]2 |] %17
w: Christ- mas still: “Be *|peace on earth, to|men good will.”|
w: glad- ness ring, Think *|of the Christ Child|crowned a king.|
w: loved, and died, And *|not of earth, at|Christ- mas- tide.|
w: song a- gain Of *|“Peace on earth, good|will to men.”|
V:2
 x2 | x8 | x7 C | x8 | x8 | x8 | x8 | x8 | x6 E2 | x8 | x8 | x8 | x7 G | x8 | x8 | x8 | x6 |] %17
V:3
 z2 | (C,G,G,,G,) (E,G,) (G,,G,) | (B,,G,G,,)G, (C,G,G,) z | (A,,C,) (G,,C,) (F,G,) (E,D,) | %4
 (C,E,) G,2 C,2 z2 | (C,G,E,)G, (A,,A,) (A,,A,) | (D,A,G,)B, (C,G,E,)C, | %7
 (D,D,,) (D,D,,) (D,D,,) (D,D,,) | (D,E,F,)D, !fermata!G,2 z2 | (G,,G,) (F,G,) (G,,G,) F,G, | %10
 (C,G,) (E,G,) (C,G,E,)C, | (G,,G,) (F,G,) (G,,G,) (F,G,) | (C,G,) (E,G,) (C,G,C,)G, | %13
 [C,G,]3 [C,C] [C,C]2 [C,G,]2 | [F,A,]3 [F,C] [F,C]2 z2 | (G,,G,) (G,,G,) (G,,G,) (G,,G,) | %16
 (G,,G,A,)B, [C,G,C]2 |] %17

